X:3
T:Gim Crack. JJo5.003, The
M:C|
L:1/8
B:J.Johnson Choice Collection Vol 5, 1750
Z:vmp.Mike Hicken 2015 www.village-music-project.org.uk
N:* There is no closing repeat sign shown in the original.
Q:1/2=100
K:G
d2|g2G2 GABc|d2G2G2d2|g2G2 GABc|A2D2D2d2|
g2G2 GABc|d2g2g2 ag|fgaf efge|f2d2d2 :|
|:d2|a2d2 defg|a2c2c2 BA|B2d2 edcB|A2D2D2d2|
g2G2GABc|d2b2c2a2|B2g2 ABcA|B2G2G2 "*":|

